X:194
T:White Heather
R:Reel
M:2/4
L:1/8
K:G % 1 sharp
"G"2B B>G|"C"AG EG|"G"DG B/2-c/2d|"D"A>B AD|"G"2B B>G|"Am"AG EG|"G"DG "D"F/2G/2A/2F/2|"G"2G 2G:||\
"D"2A d>A|"G"B/2A/2G "D"2A|"D"Ad d>f|"A7"ed BA|"D"2A d>A|"G"B/2A/2 "D"2F|"D"D>E FA|"A"2E "D"2D:||\
%  <A name="D1X195">
